assets/image/watsapp.svg

<svg width="23" height="23" viewBox="0 0 23 23" fill="none" xmlns="http://www.w3.org/2000/svg">
<path d="M19.0096 3.9261C17.0049 1.92827 14.3318 0.818359 11.5102 0.818359C5.64435 0.818359 0.892244 5.55396 0.892244 11.3995C0.892244 13.2493 1.41201 15.0992 2.30303 16.653L0.817993 22.1286L6.46112 20.6487C8.02041 21.4626 9.72819 21.9066 11.5102 21.9066C17.3761 21.9066 22.1282 17.171 22.1282 11.3255C22.054 8.58771 21.0144 5.92393 19.0096 3.9261ZM16.6336 15.1732C16.4108 15.7651 15.3713 16.3571 14.8516 16.4311C14.406 16.5051 13.812 16.5051 13.218 16.3571C12.8468 16.2091 12.327 16.0611 11.733 15.7651C9.05993 14.6552 7.35214 11.9914 7.20364 11.7694C7.05513 11.6215 6.08986 10.3636 6.08986 9.03168C6.08986 7.69979 6.75813 7.10783 6.98088 6.81186C7.20364 6.51588 7.50064 6.51588 7.7234 6.51588C7.8719 6.51588 8.09465 6.51588 8.24316 6.51588C8.39166 6.51588 8.61442 6.44189 8.83717 6.95985C9.05993 7.4778 9.57969 8.80969 9.65394 8.88369C9.72819 9.03168 9.72819 9.17966 9.65394 9.32765C9.57969 9.47564 9.50543 9.62363 9.35693 9.77161C9.20843 9.9196 9.05992 10.1416 8.98567 10.2156C8.83717 10.3636 8.68867 10.5116 8.83717 10.7335C8.98567 11.0295 9.50544 11.8434 10.3222 12.5834C11.3617 13.4713 12.1785 13.7673 12.4755 13.9153C12.7725 14.0633 12.921 13.9893 13.0695 13.8413C13.218 13.6933 13.7378 13.1013 13.8863 12.8054C14.0348 12.5094 14.2575 12.5834 14.4803 12.6574C14.7031 12.7314 16.0396 13.3973 16.2623 13.5453C16.5593 13.6933 16.7078 13.7673 16.7821 13.8413C16.8563 14.0633 16.8563 14.5812 16.6336 15.1732Z" fill="white"/>
</svg>

<svg width="23" height="23" fill="none" xmlns="http://www.w3.org/2000/svg"><path d="M19.01 3.926a10.582 10.582 0 0 0-7.5-3.108C5.644.818.892 5.554.892 11.4c0 1.85.52 3.7 1.411 5.254L.818 22.129l5.643-1.48a10.856 10.856 0 0 0 5.05 1.258c5.865 0 10.617-4.736 10.617-10.582-.074-2.737-1.114-5.401-3.118-7.399Zm-2.376 11.247c-.223.592-1.263 1.184-1.782 1.258a4.164 4.164 0 0 1-1.634-.074c-.371-.148-.891-.296-1.485-.592-2.673-1.11-4.38-3.774-4.53-3.996-.148-.148-1.113-1.405-1.113-2.737s.668-1.924.89-2.22c.224-.296.52-.296.743-.296h.52c.149 0 .371-.074.594.444.223.518.743 1.85.817 1.924a.47.47 0 0 1 0 .444 1.547 1.547 0 0 1-.297.444c-.149.148-.297.37-.371.444-.149.148-.297.296-.149.518.149.296.668 1.11 1.485 1.85 1.04.887 1.857 1.183 2.154 1.331.296.148.445.074.593-.074.149-.148.669-.74.817-1.036.149-.296.372-.222.594-.148.223.074 1.56.74 1.782.888.297.148.446.222.52.296.074.222.074.74-.148 1.332Z" fill="#fff"/></svg>
